svgs/duotone/city.svg

<svg xmlns="http://www.w3.org/2000/svg" viewBox="0 0 640 512"><!--! Font Awesome Pro 6.0.0-alpha3 by @fontawesome - https://fontawesome.com License - https://fontawesome.com/license (Commercial License) --><defs><style>.fa-secondary{opacity:.4}</style></defs><path class="fa-primary" d="M592 192H480V48.01c0-26.51-21.49-48-48-48l-96-.0049c-26.51 0-48 21.49-48 48v47.1L48 96.01c-26.51 0-48 21.49-48 48l0 336c0 17.67 14.33 32 32 32h576c17.67 0 32-14.33 32-32V240C640 213.5 618.5 192 592 192zM128 404c0 6.625-5.375 12-12 12h-40c-6.625 0-12-5.375-12-12v-40c0-6.625 5.375-12 12-12h40c6.625 0 12 5.375 12 12V404zM128 308c0 6.625-5.375 12-12 12h-40c-6.625 0-12-5.375-12-12v-40c0-6.625 5.375-12 12-12h40c6.625 0 12 5.375 12 12V308zM128 212c0 6.625-5.375 12-12 12h-40c-6.625 0-12-5.375-12-12v-40c0-6.625 5.375-12 12-12h40c6.625 0 12 5.375 12 12V212zM256 404c0 6.625-5.375 12-12 12h-40c-6.625 0-12-5.375-12-12v-40c0-6.625 5.375-12 12-12h40c6.625 0 12 5.38 12 12V404zM256 308c0 6.625-5.375 12-12 12h-40c-6.625 0-12-5.375-12-12v-40c0-6.625 5.375-12 12-12h40c6.625 0 12 5.38 12 12V308zM256 212c0 6.625-5.375 12-12 12h-40c-6.625 0-12-5.375-12-12v-40c0-6.625 5.375-12 12-12h40c6.625 0 12 5.375 12 12V212zM416 308c0 6.625-5.375 12-12 12h-40c-6.625 0-12-5.375-12-12v-40c0-6.625 5.375-12 12-12h40c6.625 0 12 5.38 12 12V308zM416 212c0 6.625-5.375 12-12 12h-40c-6.625 0-12-5.375-12-12v-40c0-6.625 5.375-12 12-12h40c6.625 0 12 5.38 12 12V212zM416 116c0 6.625-5.375 12-12 12h-40c-6.625 0-12-5.375-12-12v-40c0-6.625 5.375-12 12-12h40c6.625 0 12 5.375 12 12V116zM576 404c0 6.625-5.375 12-12 12h-40c-6.625 0-12-5.375-12-12v-40c0-6.625 5.375-12 12-12h40c6.625 0 12 5.375 12 12V404zM576 308c0 6.625-5.375 12-12 12h-40c-6.625 0-12-5.375-12-12v-40c0-6.625 5.375-12 12-12h40c6.625 0 12 5.375 12 12V308z"/><path class="fa-secondary" d="M116 160h-40c-6.625 0-12 5.375-12 12v40c0 6.625 5.375 12 12 12h40c6.625 0 12-5.375 12-12v-40C128 165.4 122.6 160 116 160zM116 256h-40c-6.625 0-12 5.375-12 12v40c0 6.625 5.375 12 12 12h40c6.625 0 12-5.375 12-12v-40C128 261.4 122.6 256 116 256zM224 24.01c0-13.26-10.75-23.1-24-23.1S176 10.75 176 24.01v72L224 96.01V24.01zM116 352h-40c-6.625 0-12 5.375-12 12v40c0 6.625 5.375 12 12 12h40c6.625 0 12-5.375 12-12v-40C128 357.4 122.6 352 116 352zM112 24.01c0-13.26-10.75-23.1-24-23.1S64 10.75 64 24.01v72h48V24.01zM564 352h-40c-6.625 0-12 5.375-12 12v40c0 6.625 5.375 12 12 12h40c6.625 0 12-5.375 12-12v-40C576 357.4 570.6 352 564 352zM564 256h-40c-6.625 0-12 5.375-12 12v40c0 6.625 5.375 12 12 12h40c6.625 0 12-5.375 12-12v-40C576 261.4 570.6 256 564 256zM244 256h-40C197.4 256 192 261.4 192 268v40c0 6.625 5.375 12 12 12h40c6.625 0 12-5.375 12-12v-40C256 261.4 250.6 256 244 256zM244 160h-40c-6.625 0-12 5.375-12 12v40c0 6.625 5.375 12 12 12h40c6.625 0 12-5.375 12-12v-40C256 165.4 250.6 160 244 160zM244 352h-40c-6.625 0-12 5.38-12 12v40c0 6.625 5.375 12 12 12h40c6.625 0 12-5.375 12-12v-40C256 357.4 250.6 352 244 352z"/></svg>

<svg xmlns="http://www.w3.org/2000/svg" viewBox="0 0 640 512"><!-- Font Awesome Pro 6.0.0-alpha2 by @fontawesome - https://fontawesome.com License - https://fontawesome.com/license (Commercial License) --><defs><style>.fa-secondary{opacity:.4}</style></defs><path d="M116 160.029H76C69.375 160.029 64 165.404 64 172.029V212.029C64 218.654 69.375 224.029 76 224.029H116C122.625 224.029 128 218.654 128 212.029V172.029C128 165.404 122.625 160.029 116 160.029ZM116 256.029H76C69.375 256.029 64 261.404 64 268.029V308.029C64 314.654 69.375 320.029 76 320.029H116C122.625 320.029 128 314.654 128 308.029V268.029C128 261.404 122.625 256.029 116 256.029ZM224 24.029C224 10.773 213.254 0.029 200 0.029S176 10.773 176 24.029V96.029H224V24.029ZM116 352.029H76C69.375 352.029 64 357.404 64 364.029V404.029C64 410.654 69.375 416.029 76 416.029H116C122.625 416.029 128 410.654 128 404.029V364.029C128 357.404 122.625 352.029 116 352.029ZM112 24.029C112 10.773 101.254 0.029 88 0.029S64 10.773 64 24.029V96.029H112V24.029ZM564 352.029H524C517.375 352.029 512 357.404 512 364.029V404.029C512 410.654 517.375 416.029 524 416.029H564C570.625 416.029 576 410.654 576 404.029V364.029C576 357.404 570.625 352.029 564 352.029ZM564 256.029H524C517.375 256.029 512 261.404 512 268.029V308.029C512 314.654 517.375 320.029 524 320.029H564C570.625 320.029 576 314.654 576 308.029V268.029C576 261.404 570.625 256.029 564 256.029ZM244 256.029H204C197.375 256.029 192 261.404 192 268.029V308.029C192 314.654 197.375 320.029 204 320.029H244C250.625 320.029 256 314.654 256 308.029V268.029C256 261.404 250.625 256.029 244 256.029ZM244 160.029H204C197.375 160.029 192 165.404 192 172.029V212.029C192 218.654 197.375 224.029 204 224.029H244C250.625 224.029 256 218.654 256 212.029V172.029C256 165.404 250.625 160.029 244 160.029ZM244 352.029H204C197.375 352.029 192 357.404 192 364.029V404.029C192 410.654 197.375 416.029 204 416.029H244C250.625 416.029 256 410.654 256 404.029V364.029C256 357.404 250.625 352.029 244 352.029Z" class="fa-secondary"/><path d="M592 192.029H480V48.029C480 21.52 458.51 0.029 432 0.029H336C309.49 0.029 288 21.52 288 48.029V96.029H48C21.49 96.029 0 117.52 0 144.029V480.029C0 497.701 14.328 512.029 32 512.029H608C625.674 512.029 640 497.701 640 480.029V240.029C640 213.52 618.51 192.029 592 192.029ZM128 404.029C128 410.654 122.625 416.029 116 416.029H76C69.375 416.029 64 410.654 64 404.029V364.029C64 357.404 69.375 352.029 76 352.029H116C122.625 352.029 128 357.404 128 364.029V404.029ZM128 308.029C128 314.654 122.625 320.029 116 320.029H76C69.375 320.029 64 314.654 64 308.029V268.029C64 261.404 69.375 256.029 76 256.029H116C122.625 256.029 128 261.404 128 268.029V308.029ZM128 212.029C128 218.654 122.625 224.029 116 224.029H76C69.375 224.029 64 218.654 64 212.029V172.029C64 165.404 69.375 160.029 76 160.029H116C122.625 160.029 128 165.404 128 172.029V212.029ZM256 404.029C256 410.654 250.625 416.029 244 416.029H204C197.375 416.029 192 410.654 192 404.029V364.029C192 357.404 197.375 352.029 204 352.029H244C250.625 352.029 256 357.404 256 364.029V404.029ZM256 308.029C256 314.654 250.625 320.029 244 320.029H204C197.375 320.029 192 314.654 192 308.029V268.029C192 261.404 197.375 256.029 204 256.029H244C250.625 256.029 256 261.404 256 268.029V308.029ZM256 212.029C256 218.654 250.625 224.029 244 224.029H204C197.375 224.029 192 218.654 192 212.029V172.029C192 165.404 197.375 160.029 204 160.029H244C250.625 160.029 256 165.404 256 172.029V212.029ZM416 308.029C416 314.654 410.625 320.029 404 320.029H364C357.375 320.029 352 314.654 352 308.029V268.029C352 261.404 357.375 256.029 364 256.029H404C410.625 256.029 416 261.404 416 268.029V308.029ZM416 212.029C416 218.654 410.625 224.029 404 224.029H364C357.375 224.029 352 218.654 352 212.029V172.029C352 165.404 357.375 160.029 364 160.029H404C410.625 160.029 416 165.404 416 172.029V212.029ZM416 116.029C416 122.654 410.625 128.029 404 128.029H364C357.375 128.029 352 122.654 352 116.029V76.029C352 69.404 357.375 64.029 364 64.029H404C410.625 64.029 416 69.404 416 76.029V116.029ZM576 404.029C576 410.654 570.625 416.029 564 416.029H524C517.375 416.029 512 410.654 512 404.029V364.029C512 357.404 517.375 352.029 524 352.029H564C570.625 352.029 576 357.404 576 364.029V404.029ZM576 308.029C576 314.654 570.625 320.029 564 320.029H524C517.375 320.029 512 314.654 512 308.029V268.029C512 261.404 517.375 256.029 524 256.029H564C570.625 256.029 576 261.404 576 268.029V308.029Z" class="fa-primary"/></svg>
